X: 1408
T: Edgar Lacey's Set Tune
B: australian traditional tunes wiki
M:C
L:1/8
R: Set Tune
Q: 1/4=100
K:D
V:1 
F>G||"D"A2FG AG FG|A2f2e2d2|"Em"B2cd ed cB|"D"A8|"G"g2f2e2de|"D"f2e2d2Ad|"A7"c2c2"Em"B2B2|"D"A8|
"D"A2FG AG FG|A2f2e2d2|"Em"B2cd ed cB|"D"A8|"G"g2f2e2de|"D"f2e2d2Ad|"A"c2c2"Em"B2"A"c2|"D"d8||
|:"D"fd fde2f2|"G"g2g2"D"f2f2|"A"e2e2"Em"B2B2|"A"e6d2|c2c2B2c2|1"D"f4"A"e2cB|"D"A8-|A4e4:|2"D"f4"A"e2c2|"D"d8-|d6||
% abcbook-tune_id 6342d53abef1248cc537f5cf


% abcbook-boost 0
% abcbook-tablature 
% abcbook-transpose 
% abcbook-lastupdated 1665324363591
% abcbook-soundfonts 
% abcbook-repeats 1
% NFF Book 2013

